X: 44
T: Missa De feria / Sanctus
N: Derived from Rue1009d-Missa_De_feria-Sanctus.krn
C: Pierre de la Rue
%%abc-version 2.0
%%abcx-abcm2ps-target-version 5.9.1 (29 Sep 2008)
%%abc-creator hum2abc beta
%%abcx-conversion-date 2019/02/17 08:01:11
%%abc-edited-by Jesse Rodin
%%abc-edited-by Chris Gage 01-29-2013
%%abcx-initial-encoding-date 2013/07/17/
%%humdrum-veritas 248818355
%%humdrum-veritas-data 3815139098
%%linebreak <none>
%%barnumbers 0
L: 1/4
M: 2/1
Q: 1/2=120
V: 1 clef=treble
V: 2 clef=treble-8
V: 3 clef=treble-8
V: 4 clef=treble-8
V: 5 clef=bass
K: C
[V:1] E8- | 
[V:2] z4B4 | 
[V:3] z8 | 
[V:4] z8 | 
[V:5] E,8- | 
[V:1] E8 | 
[V:2] c2B4e2- | 
[V:3] z8 | 
[V:4] z8 | 
[V:5] E,8- | 
[V:1] G8- | 
[V:2] e2dcB2c2- | 
[V:3] z8 | 
[V:4] z8 | 
[V:5] E,8- | 
[V:1] G8 | 
[V:2] c2BAB4 | 
[V:3] z8 | 
[V:4] z4E4 | 
[V:5] E,8 | 
[V:1] A8 | 
[V:2] A4c3d | 
[V:3] z8 | 
[V:4] F2E4A2- | 
[V:5] A,,8- | 
[V:1] z4A4- | 
[V:2] e2e3dcB | 
[V:3] z8 | 
[V:4] A2GFE2F2- | 
[V:5] A,,8- | 
[V:1] A4A4 | 
[V:2] A2d4^c2 | 
[V:3] z4A4 | 
[V:4] F2EDE4 | 
[V:5] A,,8 | 
[V:1] F4F3G | 
[V:2] d8- | 
[V:3] B2A4d2- | 
[V:4] D8- | 
[V:5] z8 | 
[V:1] A2A3GFE | 
[V:2] d8 | 
[V:3] d2cBA2B2- | 
[V:4] D8 | 
[V:5] z8 | 
[V:1] D2G4^F2 | 
[V:2] z4d4 | 
[V:3] B2AGA4 | 
[V:4] z8 | 
[V:5] z4D,4 | 
[V:1] G8- | 
[V:2] B2c4BA | 
[V:3] G8- | 
[V:4] z4G3A | 
[V:5] E,8- | 
[V:1] G8 | 
[V:2] G3FE4- | 
[V:3] G8 | 
[V:4] B2c2G2c2- | 
[V:5] E,8 | 
[V:1] z4B4 | 
[V:2] E2DCD4 | 
[V:3] z8 | 
[V:4] c2BA^G4 | 
[V:5] C,4B,,4 | 
[V:1] c4c2A2- | 
[V:2] E8 | 
[V:3] z4c3d | 
[V:4] A8- | 
[V:5] A,,4A,,3B,, | 
[V:1] AGF2E2D2 | 
[V:2] z8 | 
[V:3] e2f2c2f2- | 
[V:4] A8 | 
[V:5] C,2D,2A,,2D,2- | 
[V:1] A3FG4 | 
[V:2] z4E4 | 
[V:3] f2ed^c4 | 
[V:4] z4G4 | 
[V:5] D,2F,2E,4 | 
[V:1] F3GA2_B2 | 
[V:2] F4D3E | 
[V:3] d8- | 
[V:4] A4F3G | 
[V:5] D,8 | 
[V:1] A2d4cB | 
[V:2] F2D2F3G | 
[V:3] d8 | 
[V:4] A2_B4A2- | 
[V:5] D,4D,4- | 
[V:1] A4c4 | 
[V:2] A4A4 | 
[V:3] z4c4 | 
[V:4] AGFEF4 | 
[V:5] D,2C,B,,A,,4 | 
[V:1] B8 | 
[V:2] D8 | 
[V:3] d4B3c | 
[V:4] z4G4- | 
[V:5] G,,8 | 
[V:1] z4G4 | 
[V:2] z8 | 
[V:3] d2e4d2- | 
[V:4] G4G4- | 
[V:5] z2C,4B,,2 | 
[V:1] E2C2F4 | 
[V:2] z4D4 | 
[V:3] dcBAB4 | 
[V:4] G4F4 | 
[V:5] C,2E,2D,4 | 
[V:1] E4G4- | 
[V:2] E6F2 | 
[V:3] z4c4- | 
[V:4] G8 | 
[V:5] C,8- | 
[V:1] G2F2E4- | 
[V:2] G4A4- | 
[V:3] c4c4- | 
[V:4] E4E4 | 
[V:5] C,8 | 
[V:1] E2DCD4 | 
[V:2] A2G2F2ED | 
[V:3] c4B4 | 
[V:4] F8 | 
[V:5] D,8 | 
[V:1] E3FG2A2- | 
[V:2] C8 | 
[V:3] c8 | 
[V:4] E8- | 
[V:5] A,,4z2A,,2 | 
[V:1] ABc4BA | 
[V:2] C4C2E2- | 
[V:3] A4A4 | 
[V:4] E8 | 
[V:5] A,,4A,,4 | 
[V:1] G2A4^G2 | 
[V:2] E2F2G4 | 
[V:3] B8 | 
[V:4] z8 | 
[V:5] E,2D,2E,4 | 
[V:1] A4z2A2- | 
[V:2] E4E2F2- | 
[V:3] A8- | 
[V:4] z8 | 
[V:5] A,,3B,,C,2D,2- | 
[V:1] A2c4BA | 
[V:2] FEe4d2 | 
[V:3] A8 | 
[V:4] z4A4 | 
[V:5] D,2E,2F,4 | 
[V:1] G3FEDE2- | 
[V:2] e3dcBc2- | 
[V:3] z8 | 
[V:4] B3AGFG2- | 
[V:5] E,8 | 
[V:1] E2DCD2C2 | 
[V:2] c2BAG2A2 | 
[V:3] z8 | 
[V:4] G2FED2E2 | 
[V:5] C,4B,,2A,,2 | 
[V:1] z2G2A2B2 | 
[V:2] B4A4- | 
[V:3] z4d4 | 
[V:4] G4F4 | 
[V:5] G,,4D,4 | 
[V:1] c3BAGA2- | 
[V:2] A4z2A2- | 
[V:3] e3dcBc2- | 
[V:4] E8- | 
[V:5] A,,8 | 
[V:1] A2GFE2c2- | 
[V:2] ABcde4- | 
[V:3] c2BAG2A2 | 
[V:4] E8- | 
[V:5] A,,4z2A,,2- | 
[V:1] cBA4^G2 | 
[V:2] e4e4 | 
[V:3] c4B4 | 
[V:4] E8- | 
[V:5] A,,B,,C,D,E,4 | 
[V:1] A8 ||  
[V:2] c8 ||  
[V:3] A8 ||  
[V:4] E8 ||  
[V:5] A,,8 ||  
[V:1]  [K:C] [K:clef=treble][M:2/1]z8 | 
[V:2]  [K:C] [K:clef=treble-8][M:2/1]z4c4 | 
[V:3]  [K:C] [K:clef=treble-8][M:2/1]z8 | 
[V:4]  [K:C] [K:clef=treble-8][M:2/1]z8 | 
[V:5]  [K:C] [K:clef=bass][M:2/1]E,8 | 
[V:1] z8 | 
[V:2] B4G4 | 
[V:3] z8 | 
[V:4] z8 | 
[V:5] E,8 | 
[V:1] z8 | 
[V:2] AGABc2d2- | 
[V:3] z8 | 
[V:4] z8 | 
[V:5] z4F,4 | 
[V:1] z8 | 
[V:2] d2c3BB2 | 
[V:3] z8 | 
[V:4] z8 | 
[V:5] E,2C,2D,4 | 
[V:1] z8 | 
[V:2] c8 | 
[V:3] z8 | 
[V:4] z8 | 
[V:5] C,4z2E,2- | 
[V:1] z8 | 
[V:2] z4z2B2- | 
[V:3] z8 | 
[V:4] z8 | 
[V:5] E,2D,2E,2G,2- | 
[V:1] z8 | 
[V:2] B2A2B2d2- | 
[V:3] z8 | 
[V:4] z8 | 
[V:5] G,2F,E,D,4- | 
[V:1] z8 | 
[V:2] d2cBA4 | 
[V:3] z8 | 
[V:4] z8 | 
[V:5] D,4z2C,2 | 
[V:1] z8 | 
[V:2] G4z2G2 | 
[V:3] z8 | 
[V:4] z8 | 
[V:5] E,2F,2G,4- | 
[V:1] z8 | 
[V:2] B2c2d4 | 
[V:3] z8 | 
[V:4] z8 | 
[V:5] G,2F,E,D,4 | 
[V:1] z8 | 
[V:2] e6dc | 
[V:3] z8 | 
[V:4] z8 | 
[V:5] z2C,2E,2F,2 | 
[V:1] z8 | 
[V:2] B2d2c2B2- | 
[V:3] z8 | 
[V:4] z8 | 
[V:5] G,4A,3G, | 
[V:1] z8 | 
[V:2] B2e3dd2 | 
[V:3] z8 | 
[V:4] z8 | 
[V:5] E,2G,2F,4 | 
[V:1] z8 | 
[V:2] e3dc2B2- | 
[V:3] z8 | 
[V:4] z8 | 
[V:5] E,4z2E,2 | 
[V:1] z8 | 
[V:2] B2AGA2c2- | 
[V:3] z8 | 
[V:4] z8 | 
[V:5] G,4F,2E,2- | 
[V:1] z8 | 
[V:2] c2B4G2 | 
[V:3] z8 | 
[V:4] z8 | 
[V:5] E,2D,C,D,2F,2- | 
[V:1] z8 | 
[V:2] AGFEF4 | 
[V:3] z8 | 
[V:4] z8 | 
[V:5] F,2E,4D,2 | 
[V:1] z8 | 
[V:2] z2E2G2A2 | 
[V:3] z8 | 
[V:4] z8 | 
[V:5] E,8 | 
[V:1] z8 | 
[V:2] B2c2d4- | 
[V:3] z8 | 
[V:4] z8 | 
[V:5] z4z2B,,2 | 
[V:1] z8 | 
[V:2] d2cBA2B2 | 
[V:3] z8 | 
[V:4] z8 | 
[V:5] D,3E,F,2G,2 | 
[V:1] z8 | 
[V:2] c2d2e4- | 
[V:3] z8 | 
[V:4] z8 | 
[V:5] A,6G,F, | 
[V:1] z8 | 
[V:2] e2dcB2c2 | 
[V:3] z8 | 
[V:4] z8 | 
[V:5] E,2F,2G,4- | 
[V:1] z8 | 
[V:2] d6cB | 
[V:3] z8 | 
[V:4] z8 | 
[V:5] G,2F,E,D,2G,2- | 
[V:1] z8 | 
[V:2] A4z2G2- | 
[V:3] z8 | 
[V:4] z8 | 
[V:5] G,2^F,2G,4 | 
[V:1] z8 | 
[V:2] GABcd4 | 
[V:3] z8 | 
[V:4] z8 | 
[V:5] z2D,3E,F,G, | 
[V:1] z8 | 
[V:2] c2B3cAB | 
[V:3] z8 | 
[V:4] z8 | 
[V:5] A,3F,G,A,F,2- | 
[V:1] z8 | 
[V:2] G3AFGE2- | 
[V:3] z8 | 
[V:4] z8 | 
[V:5] F,G,E,F,D,3E, | 
[V:1] z8 | 
[V:2] E2A3^G^G2 | 
[V:3] z8 | 
[V:4] z8 | 
[V:5] C,2D,2B,,4 | 
[V:1] z8 ||  
[V:2] A8 ||  
[V:3] z8 ||  
[V:4] z8 ||  
[V:5] A,,8 ||  
[V:1]  [K:C] [K:clef=treble][M:2/1]E3FG2A2 | 
[V:2]  [K:C] [K:clef=treble-8][M:2/1]z4E3F | 
[V:3]  [K:C] [K:clef=treble-8][M:2/1]z8 | 
[V:4]  [K:C] [K:clef=treble-8][M:2/1]z8 | 
[V:5]  [K:C] [K:clef=bass][M:2/1]E,8- | 
[V:1] B2c2d4- | 
[V:2] G2A2B2c2 | 
[V:3] z8 | 
[V:4] z8 | 
[V:5] E,4D,4 | 
[V:1] d2cBA4 | 
[V:2] d2e3cd2 | 
[V:3] z8 | 
[V:4] z8 | 
[V:5] F,8 | 
[V:1] G8 | 
[V:2] B2c4BA | 
[V:3] e8- | 
[V:4] z8 | 
[V:5] E,4C,4 | 
[V:1] z4A4 | 
[V:2] B4A4- | 
[V:3] e4d4 | 
[V:4] z8 | 
[V:5] E,4F,4 | 
[V:1] B2d3cBA | 
[V:2] A4F4 | 
[V:3] f8 | 
[V:4] z8 | 
[V:5] D,8 | 
[V:1] G2B4A2- | 
[V:2] G4E2F2 | 
[V:3] e8- | 
[V:4] B8- | 
[V:5] E,8- | 
[V:1] A2G2A4 | 
[V:2] G4E4 | 
[V:3] e8 | 
[V:4] B4A4 | 
[V:5] E,4A,,4 | 
[V:1] E8 | 
[V:2] z2A4GF | 
[V:3] z8 | 
[V:4] c8 | 
[V:5] z2A,,2C,3D, | 
[V:1] z8 | 
[V:2] G6A2 | 
[V:3] e8- | 
[V:4] B8- | 
[V:5] E,2F,2G,4- | 
[V:1] z4B4 | 
[V:2] B2c2d2G2- | 
[V:3] e4d4 | 
[V:4] B8 | 
[V:5] G,4G,,4 | 
[V:1] c8 | 
[V:2] G2FEF2E2 | 
[V:3] c8 | 
[V:4] z8 | 
[V:5] A,,8 | 
[V:1] B8 | 
[V:2] G4D4 | 
[V:3] d8 | 
[V:4] B8- | 
[V:5] G,,8 | 
[V:1] G4A2c2- | 
[V:2] z8 | 
[V:3] z2d2f2ed | 
[V:4] B4A4 | 
[V:5] z2G,2F,4 | 
[V:1] c2BAG4 | 
[V:2] z8 | 
[V:3] c2d4^c2 | 
[V:4] G8 | 
[V:5] E,2D,2E,4 | 
[V:1] F8 | 
[V:2] z4F4- | 
[V:3] d8 | 
[V:4] A8 | 
[V:5] D,8- | 
[V:1] z8 | 
[V:2] F4E4- | 
[V:3] z8 | 
[V:4] z2A2c2BA | 
[V:5] D,4A,,4 | 
[V:1] z2c2d2B2 | 
[V:2] E2D2D4 | 
[V:3] z4d4 | 
[V:4] G2A4^G2 | 
[V:5] C,4B,,4 | 
[V:1] c2A4GF | 
[V:2] E8- | 
[V:3] c6A2 | 
[V:4] A8 | 
[V:5] A,,8 | 
[V:1] E2A4G2 | 
[V:2] E8 | 
[V:3] c4B4 | 
[V:4] z8 | 
[V:5] z8 | 
[V:1] A4E4 | 
[V:2] z8 | 
[V:3] A8 | 
[V:4] z4A4 | 
[V:5] z8 | 
[V:1] E2G4FE | 
[V:2] z8 | 
[V:3] z8 | 
[V:4] G6E2 | 
[V:5] z8 | 
[V:1] D2E4D2 | 
[V:2] z4A4 | 
[V:3] z8 | 
[V:4] G4F4 | 
[V:5] z8 | 
[V:1] E8 | 
[V:2] c6BA | 
[V:3] z8 | 
[V:4] E8 | 
[V:5] A,,4C,3D, | 
[V:1] z8 | 
[V:2] G3ABcd2- | 
[V:3] z8 | 
[V:4] z8 | 
[V:5] E,F,G,4G,2 | 
[V:1] z8 | 
[V:2] d2c4B2 | 
[V:3] z8 | 
[V:4] z8 | 
[V:5] F,E,D,C,D,4 | 
[V:1] G4G4 | 
[V:2] c8 | 
[V:3] e4e4 | 
[V:4] z8 | 
[V:5] C,8 | 
[V:1] F2A2B2c2- | 
[V:2] A3GF2E2- | 
[V:3] d3cB2A2- | 
[V:4] z8 | 
[V:5] F,3E,D,2C,2- | 
[V:1] cBG2A2c2 | 
[V:2] E2D3CC2 | 
[V:3] A2G4^F2 | 
[V:4] z8 | 
[V:5] C,2B,,2A,,4 | 
[V:1] B4G4 | 
[V:2] D4z2G2 | 
[V:3] G8 | 
[V:4] B4B4 | 
[V:5] G,,4z2G,2 | 
[V:1] z8 | 
[V:2] A2c3BA2- | 
[V:3] z8 | 
[V:4] A3GF2E2- | 
[V:5] F,3E,D,2C,2- | 
[V:1] z2G2A2c2- | 
[V:2] A2G3FF2 | 
[V:3] z8 | 
[V:4] E2D4C2 | 
[V:5] C,2B,,2A,,4 | 
[V:1] c2BAB4 | 
[V:2] G4G4 | 
[V:3] d6cB | 
[V:4] D8 | 
[V:5] G,,8 | 
[V:1] E3FG2A2- | 
[V:2] A2GFE2D2- | 
[V:3] c3de2f2- | 
[V:4] z8 | 
[V:5] z8 | 
[V:1] A2G2F2ED | 
[V:2] D2E2F4 | 
[V:3] f2e3dd2 | 
[V:4] z8 | 
[V:5] z4D,4 | 
[V:1] C4c4- | 
[V:2] E8- | 
[V:3] e8- | 
[V:4] A6GF | 
[V:5] A,,4A,,2C,2- | 
[V:1] c4B2G2 | 
[V:2] E8- | 
[V:3] e8- | 
[V:4] G3AB2c2- | 
[V:5] C,D,E,F,G,2C,2- | 
[V:1] A2B2c2BA | 
[V:2] E8- | 
[V:3] e8- | 
[V:4] c2B3AA2 | 
[V:5] C,B,,G,,2A,,4 | 
[V:1] G8 ||  
[V:2] E8 ||  
[V:3] e8 ||  
[V:4] B8 ||  
[V:5] E,,8 ||  
[V:1]  [K:C] [K:clef=treble][M:2/1]E8 | 
[V:2]  [K:C] [K:clef=treble-8][M:2/1]z8 | 
[V:3]  [K:C] [K:clef=treble-8][M:2/1]z8 | 
[V:4]  [K:C] [K:clef=treble-8][M:2/1]z8 | 
[V:5]  [K:C] [K:clef=bass][M:2/1]E,4E,2G,2- | 
[V:1] E4D4 | 
[V:2] z8 | 
[V:3] z8 | 
[V:4] z8 | 
[V:5] G,2F,E,F,2G,2 | 
[V:1] E4E2G2- | 
[V:2] z8 | 
[V:3] z8 | 
[V:4] z8 | 
[V:5] C,2G,3F,G,A, | 
[V:1] G2FED4 | 
[V:2] z8 | 
[V:3] z8 | 
[V:4] z8 | 
[V:5] B,2C4B,2 | 
[V:1] C4z2G2- | 
[V:2] e8 | 
[V:3] z8 | 
[V:4] z8 | 
[V:5] C4C,4 | 
[V:1] G2FEF3G | 
[V:2] e2e2d4 | 
[V:3] z8 | 
[V:4] z8 | 
[V:5] z8 | 
[V:1] C2G3FGA | 
[V:2] e8 | 
[V:3] z8 | 
[V:4] z8 | 
[V:5] z8 | 
[V:1] B2c4B2 | 
[V:2] d2c2d4 | 
[V:3] z8 | 
[V:4] z8 | 
[V:5] z8 | 
[V:1] A2c4B2- | 
[V:2] c3de4 | 
[V:3] z8 | 
[V:4] z8 | 
[V:5] z8 | 
[V:1] B2A4G2 | 
[V:2] dcBAB4 | 
[V:3] z8 | 
[V:4] z8 | 
[V:5] z8 | 
[V:1] F2E4DC | 
[V:2] A8 | 
[V:3] z8 | 
[V:4] z8 | 
[V:5] A,,3B,,C,2D,2 | 
[V:1] B,2E4D2- | 
[V:2] z8 | 
[V:3] z8 | 
[V:4] z8 | 
[V:5] E,3F,G,A,B,2- | 
[V:1] DCB,A,B,4 | 
[V:2] z8 | 
[V:3] z8 | 
[V:4] z8 | 
[V:5] B,2A,4^G,2 | 
[V:1] A,8 | 
[V:2] e8- | 
[V:3] z8 | 
[V:4] z8 | 
[V:5] A,6C2- | 
[V:1] z8 | 
[V:2] e8 | 
[V:3] z8 | 
[V:4] z8 | 
[V:5] C2B,A,G,2A,2 | 
[V:1] z8 | 
[V:2] e4d4 | 
[V:3] z8 | 
[V:4] z8 | 
[V:5] E,F,G,E,F,2E,D, | 
[V:1] z8 | 
[V:2] e3dBcdB | 
[V:3] z8 | 
[V:4] z8 | 
[V:5] C,4z2G,2 | 
[V:1] z8 | 
[V:2] c2BAGABc | 
[V:3] z8 | 
[V:4] z8 | 
[V:5] A,2F,2G,2F,E, | 
[V:1] z8 | 
[V:2] d2c4B2 | 
[V:3] z8 | 
[V:4] z8 | 
[V:5] F,E,D,C,D,4 | 
[V:1] z2E2E2G2- | 
[V:2] c8 | 
[V:3] z8 | 
[V:4] z8 | 
[V:5] C,4z2E,2 | 
[V:1] G2FEDEFG | 
[V:2] z2B2B2d2- | 
[V:3] z8 | 
[V:4] z8 | 
[V:5] E,2G,4F,E, | 
[V:1] A2G4^F2 | 
[V:2] d2cBA4 | 
[V:3] z8 | 
[V:4] z8 | 
[V:5] F,2G,2D,4 | 
[V:1] G8 | 
[V:2] G4z2B2 | 
[V:3] z8 | 
[V:4] z8 | 
[V:5] z2E,2E,2G,2- | 
[V:1] z4z2B2 | 
[V:2] B2d4cB | 
[V:3] z8 | 
[V:4] z8 | 
[V:5] G,2F,E,D,2G,,2 | 
[V:1] B2d4cB | 
[V:2] e2d2B4 | 
[V:3] z8 | 
[V:4] z8 | 
[V:5] G,,8 | 
[V:1] cBAGA2G2- | 
[V:2] z2e2f2e2- | 
[V:3] z8 | 
[V:4] z8 | 
[V:5] z8 | 
[V:1] G2c4B2 | 
[V:2] e2dcd4 | 
[V:3] z8 | 
[V:4] z8 | 
[V:5] z4z2G,2 | 
[V:1] c3BAGA2- | 
[V:2] c8 | 
[V:3] z8 | 
[V:4] z8 | 
[V:5] A,3G,F,E,F,2- | 
[V:1] A2GFE4 | 
[V:2] z4z2c2 | 
[V:3] z8 | 
[V:4] z8 | 
[V:5] F,2E,D,C,2A,2 | 
[V:1] z8 | 
[V:2] d3cBAc2- | 
[V:3] z8 | 
[V:4] z8 | 
[V:5] B,3A,G,2F,2 | 
[V:1] z4z2B2 | 
[V:2] c2BAB4 | 
[V:3] z8 | 
[V:4] z8 | 
[V:5] E,2A,4^G,2 | 
[V:1] c3BAGA2- | 
[V:2] A8 | 
[V:3] z8 | 
[V:4] z8 | 
[V:5] A,3G,F,E,F,2- | 
[V:1] A2GFE4 | 
[V:2] z4z2c2 | 
[V:3] z8 | 
[V:4] z8 | 
[V:5] F,2E,D,A,4 | 
[V:1] z8 | 
[V:2] d3cBAc2- | 
[V:3] z8 | 
[V:4] z8 | 
[V:5] F,2G,3F,E,D, | 
[V:1] z4z2G2 | 
[V:2] c2BAB4 | 
[V:3] z8 | 
[V:4] z8 | 
[V:5] C,2F,2D,2E,2 | 
[V:1] A3GFEF2- | 
[V:2] A8 | 
[V:3] z8 | 
[V:4] z8 | 
[V:5] A,,3B,,C,2D,2- | 
[V:1] F2EDC2G2 | 
[V:2] z4z2B2 | 
[V:3] z8 | 
[V:4] z8 | 
[V:5] D,2F,2E,4 | 
[V:1] A3GFEF2- | 
[V:2] c3BAGA2- | 
[V:3] z8 | 
[V:4] z8 | 
[V:5] A,,8 | 
[V:1] F2EDC2c2 | 
[V:2] A2GFE2e2 | 
[V:3] z8 | 
[V:4] z8 | 
[V:5] z4z2A,2 | 
[V:1] d3cBAc2 | 
[V:2] f3edce2- | 
[V:3] z8 | 
[V:4] z8 | 
[V:5] D,2D,2D,2A,2 | 
[V:1] B2A4^G2 | 
[V:2] edc2B4 | 
[V:3] z8 | 
[V:4] z8 | 
[V:5] G,2A,2E,4 | 
[V:1] A8 ||  
[V:2] A8 ||  
[V:3] z8 ||  
[V:4] z8 ||  
[V:5] A,,8 ||  



